X:1
T:Scottish de Monterfil
E:12
Z:Roger Ngaret (94-95)
R:scottish
C:Trad.
S:
A:Bretagne
M:4/4
L:1/16
K:C
T:Chant
Q:1/4=160
"Am"A2B2 c2A2 "G"B8 | B4 c2d2 "C"e4 e4 | \
"Am"A2B2 c2A2 "G"B6d2 |1 "C"c4 d4 c8 :|2\
c4 B4 "Am"A8 |: A2B2 c2d2 "C"e4 e4 | "G"d2e2 f2g2 "F"a8 | \
a4 g2f2 "C"e6d2 |1 c4 B4 c4 c4 :|2 c4 B4 "Am"A8 |]
T:Contre-chant
A2B2 c2A2 "G"d8 | d4 e2f2 "C"g4 g4 | \
"Am"A2B2 c2A2 "G"d8 |1 "C"e4 f4 e8 :|2\
c4 B4 "Am"A8 |: A2B2 c2B2 "C"c4 c4 | "G"B2c2 d2e2 "F"f8 | \
a4 g2a2 "C"e6d2 |1 c4 B4 c4 c4 :|2 c4 B4 "Am"A8 |]
